X: 42948
T: William Wallace
R: barndance
M: 4/4
K: Dminor
DE|:F2EDE2A>F|D2ECD2FG|AGFA{A}c2Ac|{c}d4{ed}c2Ac|
d2cAB2AG|F2{GF}EFG2FG|AGFDGFEC|1 D2C>ED2DE:|2 D2C>ED2Ac||
d2cAB2AG|F2{GF}EFG2Ac|dcBABAGF|A4G2Ac|
d2cAB2AG|F2{GF}EFG2FG|AGFDGFEC|1 D2C>ED2Ac:|2 D2C>ED2DE||
{DE}F4{DE}FA3|{DE}FE3{DE}FD3|{DE}FA3{DE}Fc3|{DE}Fd3{DE}Fc3|
{DE}Fd3{DE}Fc3|{DE}FA3{DE}FD3|{DE}FA3{DE}FE3|{DE}FD3{DE}F2D2||
F2EDE2A>F|D2ECD2FG|AGFA{A}c2Ac|{c}d4{ed}c2Ac|
d2cAB2AG|F2{GF}EFG2FG|AGFDGFEC|1 D2C>ED2DE:|2 D2C>ED2DAc||
d2cAB2AG|F2{GF}EFG2Ac|dcBABAGF|A4G2Ac|
d2cAB2AG|F2{GF}EFG2FG|AGFDGFEC|1 D2C>ED2Ac:|2 D2C>ED2DE||
F2EDE2A>F|D2ECD2FG|AGFA{A}c2Ac|{c}d4c2Ac|
d2cAB2AG|F2{GF}EFG2FG|AGFDGFEC|D{DE}FE{D}Dz4||

